X: 14
T:The Cuckoo's Nest, Ferris
M:4/4
L:1/8
Q:1/8=100
S:Ferris
A:Bidford
K:G
GB|d2dd d2ed|cA3A3B|c2cc c2dB|B2G2 G3G|
AGFE D2Bc|dcBA G2AB|AGFE D2FG|FDD||


